img/icons/corp2/6.svg

<svg width="47" height="46" viewBox="0 0 47 46" fill="none" xmlns="http://www.w3.org/2000/svg">
<path d="M45.9764 40.8965H29.6291C29.0672 40.8965 28.6074 40.4392 28.6074 39.8757C28.6074 39.3123 29.0672 38.855 29.6291 38.855H44.2068L34.2595 21.6417C33.9775 21.1538 34.1451 20.5291 34.6355 20.2433C35.1218 19.9555 35.7471 20.127 36.0311 20.621L46.8653 39.3654C47.0451 39.6798 47.0451 40.0717 46.8653 40.3861C46.6794 40.7005 46.3422 40.8965 45.9764 40.8965Z" fill="#343434"/>
<path d="M12.4983 21.0313C12.3246 21.0313 12.1489 20.9884 11.9874 20.8986C11.4991 20.6169 11.3315 19.9943 11.6135 19.5002L22.6111 0.476163C22.9769 -0.158721 24.017 -0.158721 24.3807 0.476163L33.9337 17.0097C34.2177 17.4976 34.0502 18.1223 33.5597 18.4081C33.0714 18.6918 32.4461 18.5224 32.1641 18.0304L23.4939 3.02795L13.3831 20.5209C13.1951 20.8476 12.8518 21.0313 12.4983 21.0313Z" fill="#343434"/>
<path d="M23.4987 40.8965H1.0212C0.655424 40.8965 0.318261 40.7005 0.136398 40.3861C-0.0454659 40.0717 -0.0454659 39.6798 0.136398 39.3654L9.68526 22.8421C9.96725 22.3521 10.5925 22.1847 11.0809 22.4644C11.5693 22.7502 11.7368 23.3688 11.4549 23.8628L2.79079 38.855H23.4987C24.0627 38.855 24.5204 39.3123 24.5204 39.8757C24.5204 40.4392 24.0627 40.8965 23.4987 40.8965Z" fill="#343434"/>
<path d="M21.5493 45.9998C21.347 45.9998 21.1426 45.9406 20.9649 45.8161C20.501 45.4935 20.3886 44.8566 20.7115 44.3952L23.8665 39.8796L20.7156 35.4252C20.3886 34.9597 20.499 34.3269 20.9608 34.0023C21.4205 33.6736 22.0622 33.788 22.385 34.2452L25.9508 39.2855C26.2001 39.6387 26.2021 40.1062 25.9549 40.4593L22.3891 45.5629C22.1909 45.8467 21.8721 45.9998 21.5493 45.9998Z" fill="#343434"/>
<path d="M12.4997 21.0315C12.0706 21.0315 11.6803 20.76 11.5352 20.3477L9.73498 15.1971C9.54903 14.6643 9.83102 14.0825 10.3644 13.8967C10.8936 13.7049 11.4801 13.9907 11.666 14.5235L13.1924 18.8962L17.9332 18.2695C18.4971 18.2001 19.0059 18.588 19.0795 19.1493C19.1531 19.7067 18.7607 20.2211 18.2008 20.2987L12.6346 21.0275C12.5896 21.0295 12.5447 21.0315 12.4997 21.0315Z" fill="#343434"/>
<path d="M32.8948 26.5905C32.7395 26.5905 32.5801 26.5496 32.4309 26.4782C31.9282 26.223 31.7239 25.6065 31.9793 25.1043L34.2332 20.6662C34.4171 20.3029 34.8074 20.0987 35.2018 20.113L40.7619 20.4151C41.3218 20.4498 41.755 20.9275 41.7243 21.4889C41.6937 22.0503 41.2217 22.4811 40.6475 22.4525L35.7555 22.183L33.8061 26.025C33.6243 26.3843 33.2646 26.5905 32.8948 26.5905Z" fill="#343434"/>
</svg>

<svg width="47" height="46" fill="none" xmlns="http://www.w3.org/2000/svg"><path d="M45.976 40.897H29.63a1.023 1.023 0 0 1-1.022-1.021c0-.564.46-1.021 1.022-1.021h14.578L34.26 21.642a1.025 1.025 0 0 1 .376-1.399 1.014 1.014 0 0 1 1.395.378l10.834 18.744c.18.315.18.707 0 1.021-.186.314-.523.51-.889.51zM12.498 21.031c-.173 0-.35-.043-.51-.132a1.024 1.024 0 0 1-.374-1.399L22.61.476c.366-.635 1.406-.635 1.77 0l9.553 16.534a1.023 1.023 0 0 1-.374 1.398 1.019 1.019 0 0 1-1.396-.378l-8.67-15.002-10.11 17.493a1.02 1.02 0 0 1-.886.51zm11.001 19.866H1.02a1.023 1.023 0 0 1-.885-1.532l9.55-16.523c.281-.49.906-.657 1.395-.378.488.286.656.905.374 1.399L2.79 38.855h20.708a1.022 1.022 0 1 1 0 2.042z" fill="#343434"/><path d="M21.55 46a1.019 1.019 0 0 1-.838-1.605l3.154-4.515-3.15-4.455a1.022 1.022 0 1 1 1.67-1.18l3.565 5.04c.25.354.251.821.004 1.174l-3.566 5.104a1.024 1.024 0 0 1-.84.437zM12.5 21.032c-.43 0-.82-.272-.965-.684l-1.8-5.15a1.02 1.02 0 0 1 .63-1.301 1.018 1.018 0 0 1 1.301.627l1.526 4.372 4.741-.627a1.021 1.021 0 0 1 1.146.88 1.027 1.027 0 0 1-.878 1.15l-5.566.729c-.045.002-.09.004-.135.004zm20.395 5.558a1.024 1.024 0 0 1-.915-1.486l2.253-4.438a1.04 1.04 0 0 1 .969-.553l5.56.302c.56.035.993.512.962 1.074-.03.561-.502.992-1.076.963l-4.893-.269-1.949 3.842c-.182.36-.541.566-.911.566z" fill="#343434"/></svg>
